X: 305599
T: BLACK JOKE
O: Irish Melody
%R: jig
B: Elias Howe "The Musician's Companion" Part 3 1844 p.71 #4
S: http://imslp.org/wiki/The_Musician's_Companion_(Howe,_Elias)
Z: 2015 John Chambers <jc:trillian.mit.edu>
M: 6/8
L: 1/8
K: A
% - - - - - - - - - - - - - - - - - - - - - - - - -
G/F/ |\
E2A AGA | BcB B2A | Ace ecA | Edc cA G/F/ |\
E2A AGA | BcB B2A | Ace ecA | BEG A2 :|
|: A |\
d2d edc | fdf fed | cde efg | agf edc |\
dfa agf | edcB2A | [f2A2][fA] edc | Bdc BAG |\
Ace ecA | BEG A2 :|
% - - - - - - - - - - - - - - - - - - - - - - - - -


